Newaita-dark/apps/22/acroread.svg

<svg height="22" viewBox="0 0 22 22" width="22" xmlns="http://www.w3.org/2000/svg" xmlns:xlink="http://www.w3.org/1999/xlink"><linearGradient id="a" gradientUnits="userSpaceOnUse" x1="10.9151136" x2="10.9151136" y1="19.27333715" y2="20.18293042919"><stop offset="0" stop-opacity=".27451"/><stop offset="1" stop-opacity="0"/></linearGradient><linearGradient id="b"><stop offset="0" stop-opacity=".313726"/><stop offset=".222222" stop-opacity=".27451"/><stop offset="1" stop-opacity="0"/></linearGradient><radialGradient id="c" cx="450.908936" cy="189.579361" gradientTransform="matrix(.00000012 -.0537161 -.0966889 -.00000007 34.475434 43.721791)" gradientUnits="userSpaceOnUse" r="21.166656" xlink:href="#b"/><radialGradient id="d" cx="450.908936" cy="189.579361" gradientTransform="matrix(-.00000012 .0537161 .0966889 .00000007 -12.645221 -5.175143)" gradientUnits="userSpaceOnUse" r="21.166656" xlink:href="#b"/><radialGradient id="e" cx="450.908936" cy="189.579361" gradientTransform="matrix(-.00000012 -.0537161 .0966889 -.00000007 -12.645221 43.721791)" gradientUnits="userSpaceOnUse" r="21.166656" xlink:href="#b"/><radialGradient id="f" cx="450.908936" cy="189.579361" gradientTransform="matrix(.00000012 .0537161 -.0966889 .00000007 34.475433 -5.175142)" gradientUnits="userSpaceOnUse" r="21.166656" xlink:href="#b"/><linearGradient id="g" gradientTransform="matrix(.0518029 0 0 .149471 -4.024634 23.128427)" gradientUnits="userSpaceOnUse" x1="306.916656" x2="305.954559" y1="-25.791676" y2="-141.414581"><stop offset="0" stop-color="#f44336"/><stop offset="1" stop-color="#ef5350"/></linearGradient><linearGradient id="h"><stop offset="0" stop-color="#e0e0e0"/><stop offset="1" stop-color="#eee"/></linearGradient><linearGradient id="i" gradientUnits="userSpaceOnUse" x1="275.166308" x2="275.166308" xlink:href="#h" y1="233.49969318561" y2="-168.66647475188"/><linearGradient id="j"><stop offset="0" stop-color="#424242"/><stop offset="1" stop-color="#616161"/></linearGradient><linearGradient id="k" gradientTransform="matrix(4.556143 0 0 13.146184 -353.972656 2034.180176)" gradientUnits="userSpaceOnUse" x1="165.484848" x2="165.484848" xlink:href="#j" y1="-25.791672" y2="-141.414581"/><linearGradient id="l" gradientUnits="userSpaceOnUse" x1="359.833048" x2="349.249728" xlink:href="#h" y1="233.4994349526" y2="-168.66671710991"/><linearGradient id="m" gradientUnits="userSpaceOnUse" x1="4.54796470838" x2="4.54796470838" xlink:href="#j" y1="7.22124061432" y2="6.31164763595"/><linearGradient id="n" gradientUnits="userSpaceOnUse" x1="4.54796470838" x2="4.54796470838" xlink:href="#j" y1="14.72537561432" y2="13.81578263595"/><path d="m5.457031 19.273438h10.914063v.910156h-10.914063zm0 0" fill="url(#a)"/><path d="m16.371094 19.273438h1.820312v-.910157h-1.820312zm0 0" fill="url(#c)"/><path d="m5.457031 19.273438h-1.820312v.910156h1.820312zm0 0" fill="url(#d)"/><path d="m5.457031 19.273438h-1.820312v-.910157h1.820312zm0 0" fill="url(#e)"/><path d="m16.371094 19.273438h1.820312v.910156h-1.820312zm0 0" fill="url(#f)"/><path d="m4.546875 1.992188h12.734375c.503906 0 .910156.40625.910156.910156v15.460937c0 .503907-.40625.910157-.910156.910157h-12.734375c-.5 0-.910156-.40625-.910156-.910157v-15.460937c0-.503906.410156-.910156.910156-.910156zm0 0" fill="url(#g)"/><path d="m17.511719 8.816406v.003906c-.0625 0-.132813 0-.191407.011719-1.144531.132813-2.335937 2.390625-2.414062 4.628907-1.503906.953124-3.109375 1.828124-4.710938 2.511718-.785156-.269531-2.617187-.941406-3.792968-.675781-.742188.160156-1.28125 1.023437-1.160156 1.613281-.007813-.023437-.015626-.046875-.015626-.070312 0 .054687.019532.109375.046876.167968l.011718.035157c0-.003907 0-.007813-.003906-.007813.1875.371094.78125.78125.941406.78125.867188.160156 2.652344-.375 3.746094-.777344 1.445312.648438 3.128906 1.472657 4.578125 2.234376h2.527344c-.355469-1.539063-.621094-3.519532-.789063-5.171876.761719-.546874 1.417969-1.144531 1.90625-1.734374v-1.445313c-.460937.527344-1.171875 1.113281-2.027344 1.707031.03125-2.476562.5-4.175781 2.007813-3.550781.007813.003906.011719.003906.019531.007813v-.09375c-.011718-.003907-.023437-.011719-.039062-.015626-.230469-.160156-.441406-.148437-.640625-.160156zm-2.488281 5.914063c.207031 1.511719.246093 1.914062.503906 3.929687-1.210938-.703125-2.621094-1.523437-3.894532-2.113281 1.238282-.507813 2.273438-1.097656 3.390626-1.816406zm-8.71875 1.332031c.273437 0 .570312.035156.847656.078125.058594.003906.136718.011719.207031.019531.492187.066406.816406.132813 1.050781.191406v.011719c.152344.0625.3125.128907.476563.199219-.886719.546875-3.261719.878906-3.617188.394531-.097656-.699219.410157-.890625 1.035157-.894531zm10.75 2.988281c.015624.070313.023437.144531.023437.222657h.203125c.035156 0 .070312-.003907.101562-.003907-.109374-.074219-.21875-.148437-.328124-.21875zm0 0" fill="#fff" fill-opacity=".392157"/><path d="m148.167669-147.460995v359.783824h243.431299c5.817626 0 10.544447-4.726821 10.544447-10.544448v-338.694929c0-5.908526-4.726821-10.544447-10.544447-10.544447zm0 0" style="fill:none;stroke-width:8;stroke-linecap:round;stroke-linejoin:round;stroke-dasharray:16.000002 16.000002;stroke-dashoffset:7.200001;stroke:url(#i)" transform="matrix(.0429729 0 0 .0429729 0 9.239163)"/><path d="m399.904566 175.215918c-44.31932 0-80.049625 35.730305-80.049625 80.049626v1359.81295c0 44.31932 35.730305 80.049625 80.049625 80.049625h120.246219v-1519.912201zm0 0" fill="url(#k)" stroke="#212121" stroke-linecap="round" stroke-width="11.338583" transform="scale(.0113699)"/><path d="m4.546875 19.222656c-.503906 0-.910156-.40625-.910156-.910156v-.113281c0 .503906.40625.910156.910156.910156h12.734375c.503906 0 .910156-.40625.910156-.910156v.113281c0 .503906-.40625.910156-.910156.910156zm0 0" fill-opacity=".196078"/><path d="m328.059581-168.640791v253.975747c15.907572-42.359591 26.452019-42.359591 42.359591 0v-253.975747zm0 0" fill="url(#l)" stroke="#212121" stroke-linecap="round" stroke-linejoin="round" stroke-width="3" transform="matrix(.0429729 0 0 .0429729 0 9.239163)"/><path d="m4.546875 2.042969c-.503906 0-.910156.40625-.910156.910156v.113281c0-.503906.40625-.910156.910156-.910156h12.734375c.503906 0 .910156.40625.910156.910156v-.113281c0-.503906-.40625-.910156-.910156-.910156zm0 0" fill="#fff" fill-opacity=".392157"/><path d="m4.546875 1.925781c-.539063 0-.972656.4375-.972656.976563v15.460937c0 .539063.433593.972657.972656.972657h12.734375c.539062 0 .976562-.433594.976562-.972657v-15.460937c0-.539063-.4375-.976563-.976562-.976563zm0 .128907h12.734375c.46875 0 .847656.375.847656.847656v15.460937c0 .46875-.378906.84375-.847656.84375h-12.734375c-.46875 0-.84375-.375-.84375-.84375v-15.460937c0-.472656.375-.847656.84375-.847656zm0 0" fill="#212121"/><path d="m3.636719 6.3125h2.277343v.910156h-2.277343zm0 0" fill="url(#m)"/><path d="m3.636719 7.222656v.339844h2.277343v-.339844zm0 0" fill-opacity=".235294"/><path d="m3.636719 6.3125v.226562h2.277343v-.226562zm0 0" fill="#fff" fill-opacity=".392157"/><path d="m84.628295-20.480177h52.99494v21.179795h-52.99494zm0 0" fill="none" stroke="#212121" stroke-linecap="round" stroke-linejoin="round" stroke-width="3" transform="matrix(.0429729 0 0 .0429729 -.000001 7.192592)"/><path d="m3.636719 13.816406h2.277343v.910156h-2.277343zm0 0" fill="url(#n)"/><path d="m3.636719 14.726562v.339844h2.277343v-.339844zm0 0" fill-opacity=".235294"/><path d="m3.636719 13.816406v.226563h2.277343v-.226563zm0 0" fill="#fff" fill-opacity=".392157"/><path d="m84.628295-20.4855h52.99494v21.179795h-52.99494zm0 0" fill="none" stroke="#212121" stroke-linecap="round" stroke-linejoin="round" stroke-width="3" transform="matrix(.0429729 0 0 .0429729 -.000001 14.696727)"/></svg>

<?xml version="1.0" encoding="UTF-8"?>
<svg xmlns="http://www.w3.org/2000/svg" xmlns:xlink="http://www.w3.org/1999/xlink" width="22px" height="22px" viewBox="0 0 22 22" version="1.1">
<defs>
<linearGradient id="linear0" gradientUnits="userSpaceOnUse" x1="254" y1="233.5" x2="254" y2="254.666672" gradientTransform="matrix(0.0429729,0,0,0.0429729,-0.00000262285,9.239165)">
<stop offset="0" style="stop-color:rgb(0%,0%,0%);stop-opacity:0.27451;"/>
<stop offset="1" style="stop-color:rgb(0%,0%,0%);stop-opacity:0;"/>
</linearGradient>
<radialGradient id="radial0" gradientUnits="userSpaceOnUse" cx="450.908936" cy="189.579361" fx="450.908936" fy="189.579361" r="21.166656" gradientTransform="matrix(0.000000119742,-0.0537161,-0.0966889,-0.0000000698078,34.475434,43.721791)">
<stop offset="0" style="stop-color:rgb(0%,0%,0%);stop-opacity:0.313726;"/>
<stop offset="0.222222" style="stop-color:rgb(0%,0%,0%);stop-opacity:0.27451;"/>
<stop offset="1" style="stop-color:rgb(0%,0%,0%);stop-opacity:0;"/>
</radialGradient>
<radialGradient id="radial1" gradientUnits="userSpaceOnUse" cx="450.908936" cy="189.579361" fx="450.908936" fy="189.579361" r="21.166656" gradientTransform="matrix(-0.000000119742,0.0537161,0.0966889,0.0000000698078,-12.645221,-5.175143)">
<stop offset="0" style="stop-color:rgb(0%,0%,0%);stop-opacity:0.313726;"/>
<stop offset="0.222222" style="stop-color:rgb(0%,0%,0%);stop-opacity:0.27451;"/>
<stop offset="1" style="stop-color:rgb(0%,0%,0%);stop-opacity:0;"/>
</radialGradient>
<radialGradient id="radial2" gradientUnits="userSpaceOnUse" cx="450.908936" cy="189.579361" fx="450.908936" fy="189.579361" r="21.166656" gradientTransform="matrix(-0.000000119742,-0.0537161,0.0966889,-0.0000000698078,-12.645221,43.721791)">
<stop offset="0" style="stop-color:rgb(0%,0%,0%);stop-opacity:0.313726;"/>
<stop offset="0.222222" style="stop-color:rgb(0%,0%,0%);stop-opacity:0.27451;"/>
<stop offset="1" style="stop-color:rgb(0%,0%,0%);stop-opacity:0;"/>
</radialGradient>
<radialGradient id="radial3" gradientUnits="userSpaceOnUse" cx="450.908936" cy="189.579361" fx="450.908936" fy="189.579361" r="21.166656" gradientTransform="matrix(0.000000119742,0.0537161,-0.0966889,0.0000000698078,34.475433,-5.175142)">
<stop offset="0" style="stop-color:rgb(0%,0%,0%);stop-opacity:0.313726;"/>
<stop offset="0.222222" style="stop-color:rgb(0%,0%,0%);stop-opacity:0.27451;"/>
<stop offset="1" style="stop-color:rgb(0%,0%,0%);stop-opacity:0;"/>
</radialGradient>
<linearGradient id="linear1" gradientUnits="userSpaceOnUse" x1="306.916656" y1="-25.791676" x2="305.954559" y2="-141.414581" gradientTransform="matrix(0.0518029,0,0,0.149471,-4.024634,23.128427)">
<stop offset="0" style="stop-color:rgb(95.686275%,26.274511%,21.176471%);stop-opacity:1;"/>
<stop offset="1" style="stop-color:rgb(93.725491%,32.549021%,31.37255%);stop-opacity:1;"/>
</linearGradient>
<linearGradient id="linear2" gradientUnits="userSpaceOnUse" x1="1040" y1="1695.118164" x2="1040" y2="175.118134" gradientTransform="matrix(0.264583,0,0,0.264583,-0.0000123333,-214.999756)">
<stop offset="0" style="stop-color:rgb(87.843138%,87.843138%,87.843138%);stop-opacity:1;"/>
<stop offset="1" style="stop-color:rgb(93.333334%,93.333334%,93.333334%);stop-opacity:1;"/>
</linearGradient>
<linearGradient id="linear3" gradientUnits="userSpaceOnUse" x1="165.484848" y1="-25.791672" x2="165.484848" y2="-141.414581" gradientTransform="matrix(4.556143,0,0,13.146184,-353.972656,2034.180176)">
<stop offset="0" style="stop-color:rgb(25.882354%,25.882354%,25.882354%);stop-opacity:1;"/>
<stop offset="1" style="stop-color:rgb(38.039216%,38.039216%,38.039216%);stop-opacity:1;"/>
</linearGradient>
<linearGradient id="linear4" gradientUnits="userSpaceOnUse" x1="880" y1="1695.117188" x2="840" y2="175.117218" gradientTransform="matrix(0.264583,0,0,0.264583,127.000008,-214.999756)">
<stop offset="0" style="stop-color:rgb(87.843138%,87.843138%,87.843138%);stop-opacity:1;"/>
<stop offset="1" style="stop-color:rgb(93.333334%,93.333334%,93.333334%);stop-opacity:1;"/>
</linearGradient>
<linearGradient id="linear5" gradientUnits="userSpaceOnUse" x1="105.833344" y1="0.666667" x2="105.833344" y2="-20.499998" gradientTransform="matrix(0.0429729,0,0,0.0429729,-0.000000572971,7.192592)">
<stop offset="0" style="stop-color:rgb(25.882354%,25.882354%,25.882354%);stop-opacity:1;"/>
<stop offset="1" style="stop-color:rgb(38.039216%,38.039216%,38.039216%);stop-opacity:1;"/>
</linearGradient>
<linearGradient id="linear6" gradientUnits="userSpaceOnUse" x1="105.833344" y1="0.666667" x2="105.833344" y2="-20.499998" gradientTransform="matrix(0.0429729,0,0,0.0429729,-0.000000572971,14.696727)">
<stop offset="0" style="stop-color:rgb(25.882354%,25.882354%,25.882354%);stop-opacity:1;"/>
<stop offset="1" style="stop-color:rgb(38.039216%,38.039216%,38.039216%);stop-opacity:1;"/>
</linearGradient>
</defs>
<g id="surface1">
<path style=" stroke:none;fill-rule:nonzero;fill:url(#linear0);" d="M 5.457031 19.273438 L 16.371094 19.273438 L 16.371094 20.183594 L 5.457031 20.183594 Z M 5.457031 19.273438 "/>
<path style=" stroke:none;fill-rule:nonzero;fill:url(#radial0);" d="M 16.371094 19.273438 L 18.191406 19.273438 L 18.191406 18.363281 L 16.371094 18.363281 Z M 16.371094 19.273438 "/>
<path style=" stroke:none;fill-rule:nonzero;fill:url(#radial1);" d="M 5.457031 19.273438 L 3.636719 19.273438 L 3.636719 20.183594 L 5.457031 20.183594 Z M 5.457031 19.273438 "/>
<path style=" stroke:none;fill-rule:nonzero;fill:url(#radial2);" d="M 5.457031 19.273438 L 3.636719 19.273438 L 3.636719 18.363281 L 5.457031 18.363281 Z M 5.457031 19.273438 "/>
<path style=" stroke:none;fill-rule:nonzero;fill:url(#radial3);" d="M 16.371094 19.273438 L 18.191406 19.273438 L 18.191406 20.183594 L 16.371094 20.183594 Z M 16.371094 19.273438 "/>
<path style=" stroke:none;fill-rule:nonzero;fill:url(#linear1);" d="M 4.546875 1.992188 L 17.28125 1.992188 C 17.785156 1.992188 18.191406 2.398438 18.191406 2.902344 L 18.191406 18.363281 C 18.191406 18.867188 17.785156 19.273438 17.28125 19.273438 L 4.546875 19.273438 C 4.046875 19.273438 3.636719 18.867188 3.636719 18.363281 L 3.636719 2.902344 C 3.636719 2.398438 4.046875 1.992188 4.546875 1.992188 Z M 4.546875 1.992188 "/>
<path style=" stroke:none;fill-rule:nonzero;fill:rgb(100%,100%,100%);fill-opacity:0.392157;" d="M 17.511719 8.816406 L 17.511719 8.820312 C 17.449219 8.820312 17.378906 8.820312 17.320312 8.832031 C 16.175781 8.964844 14.984375 11.222656 14.90625 13.460938 C 13.402344 14.414062 11.796875 15.289062 10.195312 15.972656 C 9.410156 15.703125 7.578125 15.03125 6.402344 15.296875 C 5.660156 15.457031 5.121094 16.320312 5.242188 16.910156 C 5.234375 16.886719 5.226562 16.863281 5.226562 16.839844 C 5.226562 16.894531 5.246094 16.949219 5.273438 17.007812 C 5.277344 17.019531 5.28125 17.03125 5.285156 17.042969 C 5.285156 17.039062 5.285156 17.035156 5.28125 17.035156 C 5.46875 17.40625 6.0625 17.816406 6.222656 17.816406 C 7.089844 17.976562 8.875 17.441406 9.96875 17.039062 C 11.414062 17.6875 13.097656 18.511719 14.546875 19.273438 L 17.074219 19.273438 C 16.71875 17.734375 16.453125 15.753906 16.285156 14.101562 C 17.046875 13.554688 17.703125 12.957031 18.191406 12.367188 L 18.191406 10.921875 C 17.730469 11.449219 17.019531 12.035156 16.164062 12.628906 C 16.195312 10.152344 16.664062 8.453125 18.171875 9.078125 C 18.179688 9.082031 18.183594 9.082031 18.191406 9.085938 L 18.191406 8.992188 C 18.179688 8.988281 18.167969 8.980469 18.152344 8.976562 C 17.921875 8.816406 17.710938 8.828125 17.511719 8.816406 Z M 15.023438 14.730469 C 15.230469 16.242188 15.269531 16.644531 15.527344 18.660156 C 14.316406 17.957031 12.90625 17.136719 11.632812 16.546875 C 12.871094 16.039062 13.90625 15.449219 15.023438 14.730469 Z M 6.304688 16.0625 C 6.578125 16.0625 6.875 16.097656 7.152344 16.140625 C 7.210938 16.144531 7.289062 16.152344 7.359375 16.160156 C 7.851562 16.226562 8.175781 16.292969 8.410156 16.351562 L 8.410156 16.363281 C 8.5625 16.425781 8.722656 16.492188 8.886719 16.5625 C 8 17.109375 5.625 17.441406 5.269531 16.957031 C 5.171875 16.257812 5.679688 16.066406 6.304688 16.0625 Z M 17.054688 19.050781 C 17.070312 19.121094 17.078125 19.195312 17.078125 19.273438 L 17.28125 19.273438 C 17.316406 19.273438 17.351562 19.269531 17.382812 19.269531 C 17.273438 19.195312 17.164062 19.121094 17.054688 19.050781 Z M 17.054688 19.050781 "/>
<path style="fill:none;stroke-width:8;stroke-linecap:round;stroke-linejoin:round;stroke:url(#linear2);stroke-dasharray:16.000002,16.000002;stroke-dashoffset:7.200001;stroke-miterlimit:4;" d="M 148.167669 -147.460995 L 148.167669 212.322829 L 391.598968 212.322829 C 397.416594 212.322829 402.143415 207.596008 402.143415 201.778381 L 402.143415 -136.916548 C 402.143415 -142.825074 397.416594 -147.460995 391.598968 -147.460995 Z M 148.167669 -147.460995 " transform="matrix(0.0429729,0,0,0.0429729,0,9.239163)"/>
<path style="fill-rule:nonzero;fill:url(#linear3);stroke-width:11.338583;stroke-linecap:round;stroke-linejoin:miter;stroke:rgb(12.941177%,12.941177%,12.941177%);stroke-opacity:1;stroke-miterlimit:4;" d="M 399.904566 175.215918 C 355.585246 175.215918 319.854941 210.946223 319.854941 255.265544 L 319.854941 1615.078494 C 319.854941 1659.397814 355.585246 1695.128119 399.904566 1695.128119 L 520.150785 1695.128119 L 520.150785 175.215918 Z M 399.904566 175.215918 " transform="matrix(0.0113699,0,0,0.0113699,0,0)"/>
<path style=" stroke:none;fill-rule:nonzero;fill:rgb(0%,0%,0%);fill-opacity:0.196078;" d="M 4.546875 19.222656 C 4.042969 19.222656 3.636719 18.816406 3.636719 18.3125 L 3.636719 18.199219 C 3.636719 18.703125 4.042969 19.109375 4.546875 19.109375 L 17.28125 19.109375 C 17.785156 19.109375 18.191406 18.703125 18.191406 18.199219 L 18.191406 18.3125 C 18.191406 18.816406 17.785156 19.222656 17.28125 19.222656 Z M 4.546875 19.222656 "/>
<path style="fill-rule:nonzero;fill:url(#linear4);stroke-width:3;stroke-linecap:round;stroke-linejoin:round;stroke:rgb(12.941177%,12.941177%,12.941177%);stroke-opacity:1;stroke-miterlimit:4;" d="M 328.059581 -168.640791 L 328.059581 85.334956 C 343.967153 42.975365 354.5116 42.975365 370.419172 85.334956 L 370.419172 -168.640791 Z M 328.059581 -168.640791 " transform="matrix(0.0429729,0,0,0.0429729,0,9.239163)"/>
<path style=" stroke:none;fill-rule:nonzero;fill:rgb(100%,100%,100%);fill-opacity:0.392157;" d="M 4.546875 2.042969 C 4.042969 2.042969 3.636719 2.449219 3.636719 2.953125 L 3.636719 3.066406 C 3.636719 2.5625 4.042969 2.15625 4.546875 2.15625 L 17.28125 2.15625 C 17.785156 2.15625 18.191406 2.5625 18.191406 3.066406 L 18.191406 2.953125 C 18.191406 2.449219 17.785156 2.042969 17.28125 2.042969 Z M 4.546875 2.042969 "/>
<path style=" stroke:none;fill-rule:nonzero;fill:rgb(12.941177%,12.941177%,12.941177%);fill-opacity:1;" d="M 4.546875 1.925781 C 4.007812 1.925781 3.574219 2.363281 3.574219 2.902344 L 3.574219 18.363281 C 3.574219 18.902344 4.007812 19.335938 4.546875 19.335938 L 17.28125 19.335938 C 17.820312 19.335938 18.257812 18.902344 18.257812 18.363281 L 18.257812 2.902344 C 18.257812 2.363281 17.820312 1.925781 17.28125 1.925781 Z M 4.546875 2.054688 L 17.28125 2.054688 C 17.75 2.054688 18.128906 2.429688 18.128906 2.902344 L 18.128906 18.363281 C 18.128906 18.832031 17.75 19.207031 17.28125 19.207031 L 4.546875 19.207031 C 4.078125 19.207031 3.703125 18.832031 3.703125 18.363281 L 3.703125 2.902344 C 3.703125 2.429688 4.078125 2.054688 4.546875 2.054688 Z M 4.546875 2.054688 "/>
<path style=" stroke:none;fill-rule:nonzero;fill:url(#linear5);" d="M 3.636719 6.3125 L 5.914062 6.3125 L 5.914062 7.222656 L 3.636719 7.222656 Z M 3.636719 6.3125 "/>
<path style=" stroke:none;fill-rule:nonzero;fill:rgb(0%,0%,0%);fill-opacity:0.235294;" d="M 3.636719 7.222656 L 3.636719 7.5625 L 5.914062 7.5625 L 5.914062 7.222656 Z M 3.636719 7.222656 "/>
<path style=" stroke:none;fill-rule:nonzero;fill:rgb(100%,100%,100%);fill-opacity:0.392157;" d="M 3.636719 6.3125 L 3.636719 6.539062 L 5.914062 6.539062 L 5.914062 6.3125 Z M 3.636719 6.3125 "/>
<path style="fill:none;stroke-width:3;stroke-linecap:round;stroke-linejoin:round;stroke:rgb(12.941177%,12.941177%,12.941177%);stroke-opacity:1;stroke-miterlimit:4;" d="M 84.628295 -20.480177 L 137.623235 -20.480177 L 137.623235 0.699618 L 84.628295 0.699618 Z M 84.628295 -20.480177 " transform="matrix(0.0429729,0,0,0.0429729,-0.000000572971,7.192592)"/>
<path style=" stroke:none;fill-rule:nonzero;fill:url(#linear6);" d="M 3.636719 13.816406 L 5.914062 13.816406 L 5.914062 14.726562 L 3.636719 14.726562 Z M 3.636719 13.816406 "/>
<path style=" stroke:none;fill-rule:nonzero;fill:rgb(0%,0%,0%);fill-opacity:0.235294;" d="M 3.636719 14.726562 L 3.636719 15.066406 L 5.914062 15.066406 L 5.914062 14.726562 Z M 3.636719 14.726562 "/>
<path style=" stroke:none;fill-rule:nonzero;fill:rgb(100%,100%,100%);fill-opacity:0.392157;" d="M 3.636719 13.816406 L 3.636719 14.042969 L 5.914062 14.042969 L 5.914062 13.816406 Z M 3.636719 13.816406 "/>
<path style="fill:none;stroke-width:3;stroke-linecap:round;stroke-linejoin:round;stroke:rgb(12.941177%,12.941177%,12.941177%);stroke-opacity:1;stroke-miterlimit:4;" d="M 84.628295 -20.4855 L 137.623235 -20.4855 L 137.623235 0.694295 L 84.628295 0.694295 Z M 84.628295 -20.4855 " transform="matrix(0.0429729,0,0,0.0429729,-0.000000572971,14.696727)"/>
</g>
</svg>
